X:31
T:Lady Flashdash Hornpipe. Le4.031
B:L.Leadley MS#4 c1850
Z:Village Music Project, 2016 Steve Mansfield
M:C
L:1/8
Q:2/4=75
K:D
A2 | dcdf ecAc | dBGB AFDF | GABc dfed | c2A2 A3A |
dAAA eAAA | gefd dcBA | dBGB AGFE | F2D2 D2 :|
|: A2 | dcdA FDFA | BGBG cAcA | Bdce dfed | c2A2 A3A |
Add2 Aee2 | Aff2 Agg2 | fefd Bgec | d2d>d d2 :|

